X:13055
T:Meadow in May
R:Air
C:Paul McCann 2005
O:England
Z:Paul Hardy's Session Tunebook 2022 (see www.paulhardy.net). Creative Commons cc by-nc-sa licenced.
M:4/4
L:1/4
Q:1/4=130
K:G
"Bm"D G|"G"B3 d|B A "Bm"G F|"C"E4-|"Am"E2 A G|"D"F3 G|A F G A|"G"B d B/A/ G|"D"A D "G"G A|
"G"B3 d|B A "Bm"G F|"C"E4-|"Am"E2 A G|"D"F3 G|"C"A B "D"A F|"G"G4-|G2:|
|:"Bm"B d|"C"e3 f|"G"g2 "C"f e|"Bm"d2 B2|"Em"G3 F|"C"E G c e|"Bm"d2 B G|"Em"E G "Am"c B|"D"A3 G/A/|
"G"B3 d|B A "Bm"G F|"C"E4-|"Am"E2 A G|"D"F3 G|"C"A B "D"A F|"G"G4-|G2:|

